assets/images/icons/inclusion-icon.svg

<svg width="40" height="40" viewBox="0 0 40 40" fill="none" xmlns="http://www.w3.org/2000/svg">
<g clip-path="url(#clip0_211_3782)">
<path opacity="0.1" d="M0.278944 28.9522C-0.0736318 25.9401 -0.122607 22.9843 0.310078 20.3101C0.84212 17.0218 2.23117 13.3636 3.74867 10.092C6.71454 3.69799 12.0239 1.46106 18.489 0.452582C27.5008 -0.953153 39.9215 0.452613 40 11.3589C39.5479 15.2591 36.5646 26.1018 26.4939 26.9292C23.1642 27.2028 21.9185 30.5473 20.4515 34.3758C16.5911 44.4503 1.56969 39.9794 0.278944 28.9522Z" fill="#7FB51F"/>
<path d="M24.889 8.33325H15.1123C10.8657 8.33325 8.33398 10.8649 8.33398 15.1116V24.8883C8.33398 29.1349 10.8657 31.6666 15.1123 31.6666H24.889C29.1357 31.6666 31.6673 29.1349 31.6673 24.8883V15.1116C31.6673 10.8649 29.1357 8.33325 24.889 8.33325ZM17.6323 23.3833L15.0073 26.0083C14.8323 26.1833 14.6107 26.2649 14.389 26.2649C14.1673 26.2649 13.934 26.1833 13.7707 26.0083L12.8957 25.1333C12.5457 24.7949 12.5457 24.2349 12.8957 23.8966C13.234 23.5583 13.7823 23.5583 14.1323 23.8966L14.389 24.1533L16.3957 22.1466C16.734 21.8083 17.2823 21.8083 17.6323 22.1466C17.9707 22.4849 17.9707 23.0449 17.6323 23.3833ZM17.6323 15.2166L15.0073 17.8416C14.8323 18.0166 14.6107 18.0983 14.389 18.0983C14.1673 18.0983 13.934 18.0166 13.7707 17.8416L12.8957 16.9666C12.5457 16.6283 12.5457 16.0683 12.8957 15.7299C13.234 15.3916 13.7823 15.3916 14.1323 15.7299L14.389 15.9866L16.3957 13.9799C16.734 13.6416 17.2823 13.6416 17.6323 13.9799C17.9707 14.3183 17.9707 14.8783 17.6323 15.2166ZM26.4873 25.3899H20.3623C19.884 25.3899 19.4873 24.9933 19.4873 24.5149C19.4873 24.0366 19.884 23.6399 20.3623 23.6399H26.4873C26.9773 23.6399 27.3623 24.0366 27.3623 24.5149C27.3623 24.9933 26.9773 25.3899 26.4873 25.3899ZM26.4873 17.2233H20.3623C19.884 17.2233 19.4873 16.8266 19.4873 16.3483C19.4873 15.8699 19.884 15.4733 20.3623 15.4733H26.4873C26.9773 15.4733 27.3623 15.8699 27.3623 16.3483C27.3623 16.8266 26.9773 17.2233 26.4873 17.2233Z" fill="#7FB51F"/>
</g>
<defs>
<clipPath id="clip0_211_3782">
<rect width="40" height="40" fill="white"/>
</clipPath>
</defs>
</svg>

<svg xmlns="http://www.w3.org/2000/svg" width="40" height="40" fill="none"><g fill="#7FB51F" clip-path="url(#a)"><path d="M.279 28.952c-.353-3.012-.402-5.968.031-8.642.532-3.288 1.921-6.946 3.439-10.218 2.966-6.394 8.275-8.63 14.74-9.64C27.501-.952 39.922.453 40 11.36c-.452 3.9-3.435 14.743-13.506 15.57-3.33.274-4.575 3.618-6.042 7.447C16.592 44.45 1.57 39.979.279 28.952" opacity=".1"/><path d="M24.889 8.333h-9.777c-4.246 0-6.778 2.532-6.778 6.779v9.776c0 4.247 2.532 6.779 6.778 6.779h9.777c4.247 0 6.778-2.532 6.778-6.779v-9.776c0-4.247-2.531-6.779-6.778-6.779m-7.257 15.05-2.625 2.625a.87.87 0 0 1-.618.257.85.85 0 0 1-.618-.257l-.875-.875a.86.86 0 0 1 0-1.236.88.88 0 0 1 1.236 0l.257.256 2.007-2.006a.88.88 0 0 1 1.236 0 .88.88 0 0 1 0 1.236m0-8.166-2.625 2.625a.87.87 0 0 1-.618.256.85.85 0 0 1-.618-.256l-.875-.875a.86.86 0 0 1 0-1.237.88.88 0 0 1 1.236 0l.257.257 2.007-2.007a.88.88 0 0 1 1.236 0 .88.88 0 0 1 0 1.237m8.855 10.173h-6.125a.88.88 0 0 1-.875-.875c0-.478.397-.875.875-.875h6.125a.874.874 0 1 1 0 1.75m0-8.167h-6.125a.88.88 0 0 1-.875-.875c0-.478.397-.875.875-.875h6.125a.874.874 0 1 1 0 1.75"/></g><defs><clipPath id="a"><path fill="#fff" d="M0 0h40v40H0z"/></clipPath></defs></svg>
